lib/images/Icon-database.svg

<svg width="40" height="40" viewBox="0 0 40 40" fill="none" xmlns="http://www.w3.org/2000/svg">
<path d="M20 13.3333C28.2843 13.3333 35 11.0947 35 8.33325C35 5.57183 28.2843 3.33325 20 3.33325C11.7157 3.33325 5 5.57183 5 8.33325C5 11.0947 11.7157 13.3333 20 13.3333Z" stroke="#2E4369" stroke-width="2" stroke-linecap="round" stroke-linejoin="round"/>
<path d="M35 20C35 22.7667 28.3333 25 20 25C11.6667 25 5 22.7667 5 20" stroke="#2E4369" stroke-width="2" stroke-linecap="round" stroke-linejoin="round"/>
<path d="M5 8.33325V31.6666C5 34.4333 11.6667 36.6666 20 36.6666C28.3333 36.6666 35 34.4333 35 31.6666V8.33325" stroke="#2E4369" stroke-width="2" stroke-linecap="round" stroke-linejoin="round"/>
</svg>

<svg width="40" height="40" fill="none" xmlns="http://www.w3.org/2000/svg"><path d="M20 13.333c8.284 0 15-2.238 15-5 0-2.761-6.716-5-15-5-8.284 0-15 2.239-15 5 0 2.762 6.716 5 15 5zM35 20c0 2.767-6.667 5-15 5S5 22.767 5 20" stroke="#2E4369" stroke-width="2" stroke-linecap="round" stroke-linejoin="round"/><path d="M5 8.333v23.334c0 2.766 6.667 5 15 5s15-2.234 15-5V8.333" stroke="#2E4369" stroke-width="2" stroke-linecap="round" stroke-linejoin="round"/></svg>
